!!!!SEGMENT: pl-kk--kk-i-6--039-001_anonim--missa-de-nativitate-kyrie.krn
!!!cenid: 16xx:1026
!!!COM: Anonim
!!!COM-rismid: pe30004985
!!!CDT:
!!!CNT:
!!!OPR: Missa de Nativitate
!!!OTL: Kyrie
!!!OMV: 001
!!!PDT:
!!!AGN: Sacred; Mass
!!!SMS-siglum: PL-Kk
!!!SMS-shelfmark: Kk.I.6
!!!SMS-shelfwork: 039-001 M
!!!SMS-variant:
!!!SMS-altvar:
!!!NIFC-rismid: 1001136501
!!!URL-scan: http://repozytorium.nifc.pl/skany/pl-kk-nut--i-6
!!!ONB-nifc: UWAGA: C (skan 0060, s. 117), T (skan 0172, s. 139), B (skan 0281, s. 145) Części Mszy: 1. Kyrie, 2. Et in terra, 3. Sanctus, 4. Agnus Dei
**kern	**text	**kern	**text	**kern	**text
*part3	*part3	*part2	*part2	*part1	*part1
*staff3	*staff3	*staff2	*staff2	*staff1	*staff1
*I"Baſso.	*	*I"Tenore	*	*I"Canto.	*
*I'B	*	*I'T	*	*I'S	*
*clefF4	*	*clefC4	*	*clefC1	*
*k[b-]	*	*k[b-]	*	*k[b-]	*
*g:	*	*g:	*	*g:	*
*M2/1	*	*M2/1	*	*M2/1	*
*met(C|)	*	*met(C|)	*	*met(C|)	*
=1-	=1-	=1-	=1-	=1-	=1-
!LO:TX:a:i:t=MiſsaDe Natiuitate D(omi)ni Nos(tri) JesuChriſti.	!	!LO:TX:a:i:t=Miſsa de Natiuitate D(omi)ni Nos(tri) JesuChriſti.	!	!LO:TX:a:i:t=Miſsa de Natiuitate D(omi)ni Nos(tri) JesuChristi.	!
!	!	!	!	!LO:TX:t=P:problem:oddech/cezura na różnej wysokości	!
4.G\	Kÿ-	4.B-\	Kẏ-	4.b-\	Kẏ-
8B-\	-ri-	8d\	-ri-	8b-\	-ri-
4F\	-e	4c\	-e	4a\	-e
!	!	!	!	!LO:TX:t=P:problem:kreska pseudotaktowa	!
4G\	e-	4B-\	e-	4g/	e-
!	!	!	!	!LO:TX:b:t=P:problem:# below	!
4D/	-le-	4A\	-le-	4f#X/	-le-
4G\	-i-	4B-\	-i-	4g/	-i-
!	!	!	!	!LO:TX:t=P:problem:kreska pseudotaktowa	!
2F,\	-son	2c,\	-ſon	2a\	-ſon
=2-	=2-	=2-	=2-	=2-	=2-
*	*ij	*	*ij	*	*ij
4.G\	Kÿ-	4.B-\	Kẏ-	4.b-\	Kẏ-
8B-\	-ri-	8B-\	-ri-	8dd\	-ri-
4F\	-e	4A/	-e	4cc\	-e
!	!	!	!	!LO:TX:t=P:problem:kreska pseudotaktowa	!
4G\	e-	4G/	e-	4b-\	e-
4D/	-le-	4F#X/	-le-	4a\	-le-
4G\	-i-	4G/	-i-	4b-\	-i-
!	!	!	!	!LO:TX:t=P:problem:kreska pseudotaktowa	!
2F,\	-son	2A,/	-ſon	2cc,\	-ſon
*	*Xij	*	*Xij	*	*Xij
=3-	=3-	=3-	=3-	=3-	=3-
(8G\L	Kẏ-	4.B-\	Kẏ-	2.g/	Kẏ-
8F\J)	.	.	.	.	.
(8E-X\L	-ri-	.	.	.	.
8D\J)	.	8B-\	-ri-	.	.
4C/	-e	4c\	-e	.	.
!LO:SIC:v:t=custos C	!	!	!	!	!
!LO:N:acc=#	!	!	!	!	!
!LO:TX:b:t=P:problem:# below	!	!	!	!LO:TX:t=P:problem:kreska pseudotaktowa	!
4BBn/	.	4d\	e-	4g/	-ri-
!LO:LB:g=original	!	!	!	!	!
2C/	e-	8c\L	.	4g/	-e
.	.	8B-\J	.	.	.
.	.	8A/L	.	2g/	e-
!	!	!LO:SIC:v:t=custos A	!	!	!
.	.	8G/J	.	.	.
!	!	!LO:LB:g=original	!	!	!
2D/	-lei-	2A/	-lei-	.	.
!	!	!	!	!LO:TX:t=P:problem:kreska pseudotaktowa	!
!	!	!	!	!LO:TX:b:t=P:problem:# below	!
.	.	.	.	4f#X/	-lei-
=4-	=4-	=4-	=4-	=4-	=4-
1GG,	-son	1B-,	-ſon	1g,	-ſon
(8G\L	Chri-	2d\	Chri-	(8b-\L	Chri-
8F\J)	.	.	.	8a\J)	.
(8G\L	-ſte	.	.	(8b-\L	-ſte
!	!	!	!	!LO:SIC:v:t=custos b	!
8A\J)	e-	.	.	8cc\J)	.
!	!	!	!	!LO:LB:g=original	!
4G\	-lei-	4d\	-ſte	4b-\	lei-
!	!	!	!	!LO:TX:t=P:problem:kreska pseudotaktowa	!
4D,/	-ſon	4d\	e-	4a,\	-ſon
=5-	=5-	=5-	=5-	=5-	=5-
*	*ij	*	*	*	*ij
(8G\L	Chri-	2d\	-lei-	(8b-\L	Chri-
8F\J)	.	.	.	8a\J)	.
(8G\L	-ſte	.	.	(8b-\L	-ſte
8A\J)	e-	.	.	8cc\J)	.
4G\	-lei-	2d\	-ſon	4b-\	lei-
!	!	!	!	!LO:TX:t=P:problem:kreska pseudotaktowa	!
4D,/	-ſon	.	.	4a,\	-ſon
*	*Xij	*	*	*	*Xij
1BB-	Chri-	2r	.	1b-	chri-
*	*	*	*ij	*	*
.	.	2d\	Chri-	.	.
=6-	=6-	=6-	=6-	=6-	=6-
2.C/	-ſte	4c\	-ſte	2a\	-ſte
.	.	4B-\	.	.	.
.	.	4A/	e-	2g/	e-
4C/	e-	4G/	.	.	.
1D	-lei-	1A	-lei-	2g/	-lei-
!	!	!	!	!LO:TX:b:t=P:problem:# below	!
.	.	.	.	2f#X/	.
=7-	=7-	=7-	=7-	=7-	=7-
*M3/1	*	*M3/1	*	*M3/1	*
0GG,	-ſon	0G,	-ſon	0g,	-ſon
*	*	*	*Xij	*	*
!LO:SIC:v:t=custos G	!	!	!	!LO:TX:t=P:problem:kreska pseudotaktowa	!
1G	Kÿ-	1B-	Kẏ-	1g	Kẏ-
!LO:LB:g=original	!	!	!	!	!
=8-	=8-	=8-	=8-	=8-	=8-
0G	-ri-	0B-	-ri-	0g	-ri-
!	!	!	!	!LO:TX:t=P:problem:kreska pseudotaktowa	!
1G	e	1B-	-e	1g	-e
=9-	=9-	=9-	=9-	=9-	=9-
0F	e-	0c	.	0a	e-
!	!	!	!	!LO:TX:t=P:problem:kreska pseudotaktowa	!
1F	.	1c	e-	1a	.
=10-	=10-	=10-	=10-	=10-	=10-
*	*	*lig	*	*lig	*
1B-	.	1d	.	1b-	.
!	!	!LO:SIC:v:t=custos b	!	!	!
1F	.	1c	.	1g	.
*	*	*Xlig	*	*Xlig	*
!	!	!LO:LB:g=original	!	!LO:TX:t=P:problem:kreska pseudotaktowa	!
1G	-lei-	1B-	-lei-	1g	-lei-
=11-	=11-	=11-	=11-	=11-	=11-
0D,	-son	0A,	-ſon	0fny,	-ſon
*	*ij	*	*ij	*	*ij
!	!	!	!	!LO:SIC:v:t=custos b	!
!	!	!	!	!LO:TX:t=P:problem:# above	!
1D	Kÿ-	1A	Kẏ-	1f#X	Kẏ-
!	!	!	!	!LO:LB:g=original	!
=12-	=12-	=12-	=12-	=12-	=12-
*	*	*	*	*col	*
0BB-	-ri-	0d	-ri-	0b-	-ri-
1E-X	e	1e-X	-e	0b-	-e
=13-	=13-	=13-	=13-	=13-	=13-
*col	*	*col	*	*	*
1BB-	e-	1d	e-	.	.
!	!	!	!	!LO:TX:t=P:problem:kreska pseudotaktowa	!
0F	-lei-	0c	-lei-	0a	-lei-
*Xcol	*	*Xcol	*	*Xcol	*
=14-	=14-	=14-	=14-	=14-	=14-
0BB-	-son	0B-,	-ſon	0b-,	-ſon
*	*Xij	*	*Xij	*	*Xij
!	!	!	!	!LO:TX:t=P:problem:kreska pseudotaktowa	!
1B-	Kẏ-	1d	Kẏ-	1b-	Kẏ-
=15-	=15-	=15-	=15-	=15-	=15-
0B-	-ri-	0d	-ri-	0b-	-ri-
!LO:SIC:v:t=custos F	!	!	!	!LO:TX:t=P:problem:kreska pseudotaktowa	!
1B-	-e	1d	-e	1b-	-e
!LO:LB:g=original	!	!	!	!	!
=16-	=16-	=16-	=16-	=16-	=16-
*	*	*	*	*col	*
0F	e-	0c	e-	0a	e-
1G	.	1B-	-le-	0g	.
=17-	=17-	=17-	=17-	=17-	=17-
*col	*	*	*	*	*
1C	-le-	0.A	-i-	.	.
!	!	!	!	!LO:TX:t=P:problem:kreska pseudotaktowa	!
!	!	!	!	!LO:TX:t=P:problem:# above	!
0D	-i-	.	.	0f#X	-lei-
*Xcol	*	*	*	*Xcol	*
=18-	=18-	=18-	=18-	=18-	=18-
0GG,	-ſon	0G,	-ſon	0g,	-ſon
!	!	!	!	!LO:TX:t=P:problem:kreska pseudotaktowa	!
1G	Kẏ-	1B-	Kẏ-	1g	Kẏ-
=19-	=19-	=19-	=19-	=19-	=19-
!	!	!	!	!LO:TX:t=P:problem:# above	!
0D	-ri-	0A	-ri-	0f#X	-ri-
!	!	!LO:SIC:v:t=custos c	!	!	!
1G	-e	1B-	-e	1g	-e
!	!	!LO:LB:g=original	!	!	!
=20-	=20-	=20-	=20-	=20-	=20-
1.F	.	1.c	e-	0a	e-
2Eny\	.	4B-\	.	.	.
.	.	4c\	.	.	.
!	!	!	!	!LO:TX:t=P:problem:kreska pseudotaktowa	!
2D/	.	1.d	.	1b-	.
2C/	e-	.	.	.	.
=21-	=21-	=21-	=21-	=21-	=21-
0BB-	.	.	.	2b-\	.
.	.	2c\	.	2a\	.
.	.	2B-\	.	2g/	.
.	.	2A/	.	2fny/	.
1C	.	2G/	.	0g	-le-
.	.	2A/	.	.	.
=22-	=22-	=22-	=22-	=22-	=22-
*col	*	*col	*	*	*
1GG	le-	1B-	le-	.	.
!	!	!	!	!LO:TX:t=P:problem:# above	!
0D	i-	0A	i-	0f#X	i-
*Xcol	*	*Xcol	*	*	*
=23-	=23-	=23-	=23-	=23-	=23-
0.GGl	-ſon.	0.Gl	-ſon.	0.gl	-ſon.
==	==	==	==	==	==
*-	*-	*-	*-	*-	*-
!!!system-decoration: [s1,s2,s3]
!!!RDF**kern: l = terminal long
!!!ENC: Marta Lawrence
!!!END: 2021-03-22
!!!ENC: Katarzyna Serwa
!!!END: 2021-03-11
